X:1
T:Title
L:1/8
M:4/4
I:linebreak $
K:D
V:1 treble nm="Voice"
V:1
"D" A3 F D2 FA |"G" GFED"A" EFFF |"D" A3 F D2 FA |"G" GFED"A" EDEF |[M:2/4]"D" DD D2 :: %5
[M:4/4]"D" A,2 DE F3 E | D2 FA"G" GFED |"A" EFFF"D" DA,DE | F3 E D2 FA |"G" GFED"A" EDEF | %10
[M:2/4]"D" DD D2 :| %11
